src/templates/_includes/icons/twitter.svg

<svg width="24" height="24" viewBox="0 0 24 24" fill="none" xmlns="http://www.w3.org/2000/svg">
<path d="M21.205 7.99801C21.205 8.23801 21.205 8.39801 21.205 8.63801C21.205 14.641 16.642 21.525 8.318 21.525C5.757 21.525 3.435 20.805 1.354 19.524C1.674 19.524 2.074 19.604 2.395 19.604C4.556 19.604 6.477 18.884 8.078 17.683C6.077 17.683 4.476 16.322 3.836 14.561C4.156 14.641 4.396 14.641 4.716 14.641C5.116 14.641 5.596 14.561 5.917 14.561C3.916 14.161 2.315 12.32 2.315 10.078C2.315 10.078 2.315 10.078 2.315 9.99801C2.955 10.318 3.596 10.558 4.316 10.558C3.115 9.67801 2.315 8.31701 2.315 6.79601C2.315 5.91601 2.555 5.19501 2.955 4.55501C5.196 7.35701 8.478 9.11801 12.24 9.27801C12 8.95801 12 8.63801 12 8.15701C12 5.67601 14.001 3.67401 16.483 3.67401C17.764 3.67401 18.964 4.23401 19.765 5.03501C20.806 4.79501 21.766 4.47501 22.647 3.99401C22.407 5.11501 21.606 5.91501 20.646 6.47501C21.607 6.39501 22.487 6.15501 23.207 5.75501C22.887 6.47501 22.166 7.35601 21.206 7.99601L21.205 7.99801Z" fill="black"/>
</svg>

<svg version="1.1" aria-hidden="true" xmlns="http://www.w3.org/2000/svg"
    xmlns:xlink="http://www.w3.org/1999/xlink" x="0px" y="0px" width="24px" height="24px" viewBox="0 0 24 24"
    style="enable-background:new 0 0 24 24;" xml:space="preserve">
    <path
    d="M21.2,8c0,0.2,0,0.4,0,0.6c0,6-4.6,12.9-12.9,12.9c-2.6,0-4.9-0.7-7-2c0.3,0,0.7,0.1,1,0.1c2.2,0,4.1-0.7,5.7-1.9
c-2,0-3.6-1.4-4.2-3.1c0.3,0.1,0.6,0.1,0.9,0.1c0.4,0,0.9-0.1,1.2-0.1c-2-0.4-3.6-2.2-3.6-4.5c0,0,0,0,0-0.1c0.6,0.3,1.3,0.6,2,0.6
c-1.2-0.9-2-2.2-2-3.8c0-0.9,0.2-1.6,0.6-2.2c2.2,2.8,5.5,4.6,9.3,4.7C12,9,12,8.6,12,8.2c0-2.5,2-4.5,4.5-4.5
c1.3,0,2.5,0.6,3.3,1.4c1-0.2,2-0.6,2.9-1c-0.2,1.1-1,1.9-2,2.5c1-0.1,1.8-0.3,2.6-0.7C22.9,6.5,22.2,7.4,21.2,8L21.2,8z" />
</svg>
